Origami/22x22/apps/citra.svg

<svg width="22" height="22" version="1.1" viewBox="0 0 22 22" xmlns="http://www.w3.org/2000/svg">
 <path d="m11 1.5a10 10 0 0 0 -10 10 10 10 0 0 0 10 10 10 10 0 0 0 10 -10 10 10 0 0 0 -10 -10z" style="opacity:.2"/>
 <path d="M 11,1 A 10,10 0 0 0 1,11 10,10 0 0 0 11,21 10,10 0 0 0 21,11 10,10 0 0 0 11,1 Z" style="fill:#ff9426"/>
 <circle cx="11" cy="11.5" r="8.5" style="opacity:.2"/>
 <circle cx="11" cy="11" r="8.5" style="fill:#ffffff"/>
 <path d="M 11,1 A 10,10 0 0 0 1.0705,9.926 10,9.5 0 0 1 11,1.5 10,9.5 0 0 1 20.961,10.2235 10,10 0 0 0 11,1 Z m 9.961,9.2235 A 10,10 0 0 1 21,11 10,9.5 0 0 0 20.961,10.2235 Z M 1.0705,9.926 A 10,9.5 0 0 0 1.0461,10.122 10,10 0 0 1 1.0705,9.926 Z M 1.0461,10.122 A 10,10 0 0 0 1.0002,11 10,9.5 0 0 1 1.0461,10.122 Z" style="fill:#ffffff;opacity:.2"/>
 <path d="m10.982422 3.5c-0.824659-0.00455-1.593657 0.1878227-1.964844 0.3974609 5e-4 0.00309 4.77e-4 0.00273 1e-3 0.00586 0.03154 0.1890561 0.105097 0.4829851 0.207031 0.8291016 0.203869 0.6922325 0.522051 1.6054455 0.853516 2.5078125 0.441755 1.202616 0.657991 1.722381 0.919922 2.379882 0.264971-0.6570045 0.485496-1.178678 0.930664-2.3818355 0.333742-0.902005 0.651879-1.8141665 0.853516-2.5048825 0.100818-0.345358 0.172307-0.638085 0.201171-0.8242186-0.393661-0.2095074-1.178097-0.4046304-2.001976-0.4091804z" style="fill:#d2e015"/>
 <path d="m10.999024 12.379883c-0.261932 0.657502-0.478168 1.177267-0.919922 2.379883-0.331465 0.902367-0.649647 1.815579-0.853516 2.507812-0.101935 0.346116-0.175486 0.640045-0.207031 0.829101-5.5e-4 0.0032-4.8e-4 0.0027-1e-3 0.0059 0.371162 0.209639 1.140184 0.402011 1.964844 0.397461 0.823879-0.0045 1.608315-0.199673 2.001953-0.409179-0.028866-0.186174-0.100354-0.478901-0.201173-0.824259-0.201637-0.690716-0.519774-1.602878-0.853515-2.504882-0.445168-1.203158-0.665694-1.724831-0.930664-2.381836z" style="fill:#c74a30"/>
 <path d="m18.102539 9.017578c-0.0031 5e-4 -0.0027 4.77e-4 -0.0059 1e-3 -0.189056 0.03154-0.482985 0.105097-0.829101 0.207031-0.692233 0.203869-1.605446 0.522051-2.507813 0.853516-1.202616 0.441755-1.722381 0.657991-2.379882 0.919922 0.657005 0.264971 1.178678 0.485496 2.381836 0.930664 0.902004 0.333742 1.814166 0.651879 2.504882 0.853516 0.345358 0.100818 0.638085 0.172307 0.824219 0.201171 0.209507-0.393661 0.40463-1.178097 0.40918-2.001976 0.0045-0.824659-0.187823-1.593681-0.397461-1.964844z" style="fill:#ff769d"/>
 <path d="m3.8974609 9.017578c-0.2096384 0.371163-0.402014 1.140185-0.3974609 1.964844 0.00455 0.823879 0.1996729 1.608292 0.4091797 2.001953 0.1861338-0.02886 0.4788608-0.100354 0.8242188-0.201172 0.690716-0.201637 1.602878-0.519774 2.5048825-0.853515 1.2031575-0.445169 1.724831-0.665694 2.381836-0.930664-0.6575015-0.261932-1.1772665-0.478168-2.3798825-0.919922-0.902367-0.331465-1.81558-0.649647-2.5078125-0.853516-0.3461165-0.101935-0.6400455-0.175486-0.8291017-0.207031-0.00313-5.5e-4 -0.00278-4.8e-4 -0.00586-1e-3z" style="fill:#f9a726"/>
 <path d="m14.621094 4.576172c-0.0019 0.0027-0.0019 0.0022-0.0039 0.0049-0.111377 0.1559895-0.266791 0.4156025-0.439453 0.732422-0.345325 0.6336395-0.766233 1.503526-1.169922 2.3759765-0.537918 1.1625455-0.752485 1.6837805-1.032227 2.3339845 0.652027-0.277253 1.175552-0.490513 2.34082-1.026367 0.873805-0.401823 1.744988-0.821161 2.375977-1.1669925 0.315495-0.1729155 0.572584-0.330199 0.724609-0.441406-0.130335-0.426533-0.54677-1.118464-1.125976-1.7041015-0.579649-0.5860855-1.259146-0.9939365-1.669922-1.1083985z" style="fill:#89dc3c"/>
 <path d="m10.023438 11.975586c-0.650204 0.279742-1.1714395 0.494309-2.333985 1.032227-0.8724505 0.403689-1.742337 0.824596-2.3759765 1.169922-0.3168195 0.172662-0.5764325 0.328076-0.732422 0.439453-0.00275 0.0019-0.00225 2e-3 -0.0049 0.0039 0.114462 0.410775 0.522313 1.090272 1.1083985 1.669921 0.5856375 0.579206 1.2775685 0.995641 1.7041015 1.125976 0.111207-0.152025 0.2684905-0.409114 0.441406-0.724609 0.3458315-0.630989 0.7651695-1.502171 1.1669925-2.375977 0.535854-1.165267 0.749115-1.688793 1.026367-2.34082z" style="fill:#dc6e33"/>
 <path d="m11.976563 11.975586c0.277252 0.652027 0.490513 1.175552 1.026367 2.34082 0.401823 0.873805 0.821161 1.744987 1.166992 2.375977 0.172916 0.315494 0.330199 0.572583 0.441406 0.724609 0.426533-0.130336 1.118464-0.54677 1.704101-1.125977 0.586086-0.579649 0.993937-1.259146 1.108399-1.669921-0.0027-0.0019-0.0022-0.0019-0.0049-0.0039-0.15599-0.111377-0.415602-0.266791-0.732422-0.439453-0.63364-0.345325-1.503526-0.766233-2.375976-1.169922-1.162546-0.537918-1.683781-0.752485-2.333985-1.032227z" style="fill:#dd4f3c"/>
 <path d="m7.378906 4.576172c-0.4107765 0.114462-1.0902725 0.522313-1.6699215 1.1083985-0.5792065 0.5856375-0.995641 1.2775685-1.1259765 1.7041015 0.1520255 0.111207 0.4091145 0.2684905 0.724609 0.441406 0.6309895 0.3458315 1.502172 0.7651695 2.375977 1.1669925 1.165268 0.5358545 1.688793 0.7491145 2.34082 1.0263675-0.279741-0.650204-0.494309-1.1714395-1.0322265-2.333985-0.403689-0.8724505-0.8245965-1.742337-1.169922-2.3759765-0.1726625-0.3168195-0.3280765-0.5764325-0.439453-0.732422-0.00195-0.00275-2e-3 -0.00225-0.0039-0.0049z" style="fill:#f8e12e"/>
</svg>

<svg xmlns="http://www.w3.org/2000/svg" width="22" height="22" version="1.1" viewBox="0 0 22 22">
 <path style="opacity:0.2" d="m 11,1.5 a 10,10 0 0 0 -10,10 10,10 0 0 0 10,10 10,10 0 0 0 10,-10 10,10 0 0 0 -10,-10 z"/>
 <path style="fill:#ff9426" d="M 11,1 A 10,10 0 0 0 1,11 10,10 0 0 0 11,21 10,10 0 0 0 21,11 10,10 0 0 0 11,1 Z"/>
 <circle style="opacity:0.2" cx="11" cy="11.5" r="8.5"/>
 <circle style="fill:#ffffff" cx="11" cy="11" r="8.5"/>
 <path style="opacity:0.2;fill:#ffffff" d="M 11,1 A 10,10 0 0 0 1.0705,9.926 10,9.5 0 0 1 11,1.5 10,9.5 0 0 1 20.961,10.2235 10,10 0 0 0 11,1 Z m 9.961,9.2235 A 10,10 0 0 1 21,11 10,9.5 0 0 0 20.961,10.2235 Z M 1.0705,9.926 A 10,9.5 0 0 0 1.0461,10.122 10,10 0 0 1 1.0705,9.926 Z M 1.0461,10.122 A 10,10 0 0 0 1.0002,11 10,9.5 0 0 1 1.0461,10.122 Z"/>
 <path style="fill:#d2e015" d="M 10.982422,3.5 C 10.157763,3.49545 9.388765,3.6878227 9.017578,3.8974609 c 5e-4,0.00309 4.77e-4,0.00273 10e-4,0.00586 C 9.050118,4.092377 9.123675,4.386306 9.225609,4.7324225 9.429478,5.424655 9.74766,6.337868 10.079125,7.240235 10.52088,8.442851 10.737116,8.962616 10.999047,9.620117 11.264018,8.9631125 11.484543,8.441439 11.929711,7.2382815 12.263453,6.3362765 12.58159,5.424115 12.783227,4.733399 12.884045,4.388041 12.955534,4.095314 12.984398,3.9091804 12.590737,3.699673 11.806301,3.50455 10.982422,3.5 Z"/>
 <path style="fill:#c74a30" d="m 10.999024,12.379883 c -0.261932,0.657502 -0.478168,1.177267 -0.919922,2.379883 -0.331465,0.902367 -0.649647,1.815579 -0.853516,2.507812 -0.101935,0.346116 -0.175486,0.640045 -0.207031,0.829101 -5.5e-4,0.0032 -4.8e-4,0.0027 -10e-4,0.0059 0.371162,0.209639 1.140184,0.402011 1.964844,0.397461 0.823879,-0.0045 1.608315,-0.199673 2.001953,-0.409179 C 12.955486,17.904687 12.883998,17.61196 12.783179,17.266602 12.581542,16.575886 12.263405,15.663724 11.929664,14.76172 11.484496,13.558562 11.26397,13.036889 10.999,12.379884 Z"/>
 <path style="fill:#ff769d" d="m 18.102539,9.017578 c -0.0031,5e-4 -0.0027,4.77e-4 -0.0059,10e-4 -0.189056,0.03154 -0.482985,0.105097 -0.829101,0.207031 -0.692233,0.203869 -1.605446,0.522051 -2.507813,0.853516 -1.202616,0.441755 -1.722381,0.657991 -2.379882,0.919922 0.657005,0.264971 1.178678,0.485496 2.381836,0.930664 0.902004,0.333742 1.814166,0.651879 2.504882,0.853516 0.345358,0.100818 0.638085,0.172307 0.824219,0.201171 0.209507,-0.393661 0.40463,-1.178097 0.40918,-2.001976 0.0045,-0.824659 -0.187823,-1.593681 -0.397461,-1.964844 z"/>
 <path style="fill:#f9a726" d="M 3.8974609,9.017578 C 3.6878225,9.388741 3.4954469,10.157763 3.5,10.982422 c 0.00455,0.823879 0.1996729,1.608292 0.4091797,2.001953 0.1861338,-0.02886 0.4788608,-0.100354 0.8242188,-0.201172 0.690716,-0.201637 1.602878,-0.519774 2.5048825,-0.853515 C 8.4414385,11.484519 8.963112,11.263994 9.620117,10.999024 8.9626155,10.737092 8.4428505,10.520856 7.2402345,10.079102 6.3378675,9.747637 5.4246545,9.429455 4.732422,9.225586 4.3863055,9.123651 4.0923765,9.0501 3.9033203,9.018555 c -0.00313,-5.5e-4 -0.00278,-4.8e-4 -0.00586,-10e-4 z"/>
 <path style="fill:#89dc3c" d="m 14.621094,4.576172 c -0.0019,0.0027 -0.0019,0.0022 -0.0039,0.0049 C 14.505817,4.7370615 14.350403,4.9966745 14.177741,5.313494 13.832416,5.9471335 13.411508,6.81702 13.007819,7.6894705 12.469901,8.852016 12.255334,9.373251 11.975592,10.023455 12.627619,9.746202 13.151144,9.532942 14.316412,8.997088 15.190217,8.595265 16.0614,8.175927 16.692389,7.8300955 17.007884,7.65718 17.264973,7.4998965 17.416998,7.3886895 17.286663,6.9621565 16.870228,6.2702255 16.291022,5.684588 15.711373,5.0985025 15.031876,4.6906515 14.6211,4.5761895 Z"/>
 <path style="fill:#dc6e33" d="m 10.023438,11.975586 c -0.650204,0.279742 -1.1714395,0.494309 -2.333985,1.032227 -0.8724505,0.403689 -1.742337,0.824596 -2.3759765,1.169922 -0.3168195,0.172662 -0.5764325,0.328076 -0.732422,0.439453 -0.00275,0.0019 -0.00225,0.002 -0.0049,0.0039 0.114462,0.410775 0.522313,1.090272 1.1083985,1.669921 0.5856375,0.579206 1.2775685,0.995641 1.7041015,1.125976 C 7.4998615,17.26496 7.657145,17.007871 7.8300605,16.692376 8.175892,16.061387 8.59523,15.190205 8.997053,14.316399 9.532907,13.151132 9.746168,12.627606 10.02342,11.975579 Z"/>
 <path style="fill:#dd4f3c" d="m 11.976563,11.975586 c 0.277252,0.652027 0.490513,1.175552 1.026367,2.34082 0.401823,0.873805 0.821161,1.744987 1.166992,2.375977 0.172916,0.315494 0.330199,0.572583 0.441406,0.724609 0.426533,-0.130336 1.118464,-0.54677 1.704101,-1.125977 0.586086,-0.579649 0.993937,-1.259146 1.108399,-1.669921 -0.0027,-0.0019 -0.0022,-0.0019 -0.0049,-0.0039 -0.15599,-0.111377 -0.415602,-0.266791 -0.732422,-0.439453 -0.63364,-0.345325 -1.503526,-0.766233 -2.375976,-1.169922 -1.162546,-0.537918 -1.683781,-0.752485 -2.333985,-1.032227 z"/>
 <path style="fill:#f8e12e" d="M 7.378906,4.576172 C 6.9681295,4.690634 6.2886335,5.098485 5.7089845,5.6845705 5.129778,6.270208 4.7133435,6.962139 4.583008,7.388672 4.7350335,7.499879 4.9921225,7.6571625 5.307617,7.830078 5.9386065,8.1759095 6.809789,8.5952475 7.683594,8.9970705 8.848862,9.532925 9.372387,9.746185 10.024414,10.023438 9.744673,9.373234 9.530105,8.8519985 8.9921875,7.689453 8.5884985,6.8170025 8.167591,5.947116 7.8222655,5.3134765 7.649603,4.996657 7.494189,4.737044 7.3828125,4.5810545 c -0.00195,-0.00275 -0.002,-0.00225 -0.0039,-0.0049 z"/>
</svg>
